is-framework/assets/images/social-icons/icon-yelp.svg

<?xml version="1.0" encoding="UTF-8"?>
<svg class="svg-yelp" width="24px" height="32px" viewBox="0 0 24 32" version="1.1" xmlns="http://www.w3.org/2000/svg" xmlns:xlink="http://www.w3.org/1999/xlink">
    <!-- Generator: Sketch 53.1 (72631) - https://sketchapp.com -->
    <title>Group</title>
    <desc>Created with Sketch.</desc>
    <g id="Welcome" stroke="none" stroke-width="1" fill="none" fill-rule="evenodd">
        <g id="Desktop" transform="translate(-861.000000, -1572.000000)" fill="#231F20">
            <g id="Group" transform="translate(861.000000, 1572.000000)">
                <path d="M8.26832481,20.511442 L7.30924316,20.9285187 C6.29687921,21.3455955 4.96482137,21.929503 3.63276353,22.5829232 C3.16387917,22.8401206 2.64304455,22.9833169 2.11421759,23 C2.05294293,23 1.99166827,22.9958292 1.93172567,22.9902682 C0.759514768,22.874877 -0.100994596,21.7890871 0.00956620455,20.5670522 L0.00956620455,16.3962846 C0.00956620455,14.4221212 1.66131793,13.3794293 3.63276353,14.3943161 C4.910207,15.0338338 6.29687921,15.6177413 7.30924316,16.0487206 L8.26832481,16.4518948 C8.90638051,16.7438486 10,17.2304381 10,18.4816684 C10,19.7328987 8.92103315,20.2194882 8.26832481,20.511442 Z M12.0452286,24.7532 C12.1236571,25.86695 12.2265143,27.40695 12.4566571,28.8507 C12.6405143,29.71145 12.4412286,30.614825 11.9166571,31.2982 C11.5283714,31.7602 10.9690857,32.017325 10.3866571,31.99945 C10.1025143,31.995325 9.82094286,31.94445 9.55222857,31.8482 L5.88665714,30.56945 C5.11137143,30.3577 4.50322857,29.71695 4.29365714,28.89195 C4.13037143,27.936325 4.46465714,26.962825 5.16665714,26.3482 C6.13094286,25.3032 7.05665714,24.1207 7.73808571,23.25445 L8.38094286,22.4432 C8.97237143,21.71445 9.5638,20.97195 10.6823714,21.35695 C11.8022286,21.74195 11.9680857,22.95195 11.9680857,23.6807 C12.0452286,23.9557 12.0452286,24.3132 12.0452286,24.7532 Z M21.29675,21.2336429 C22.178,21.2915 22.958,21.8392143 23.33425,22.6607857 C23.58425,23.3910714 23.453,24.2023571 22.9855,24.8079286 L20.78425,27.9322143 C20.39425,28.5403571 19.743,28.9196429 19.03425,28.9479286 C18.108,28.8849286 17.303,28.2716429 16.97175,27.3793571 C16.30925,26.1579286 15.59675,24.9365 15.05925,24.0493571 L14.548,23.2007857 C13.95675,22.5039286 13.85675,21.4997857 14.29675,20.6936429 C14.608,20.2423571 15.123,19.9852143 15.65925,20.0122143 C16.00675,20.0237857 16.34925,20.0752143 16.6855,20.1665 L17.63425,20.3979286 C18.62175,20.6422143 19.98425,21.0022143 21.29675,21.2336429 Z M15.659625,18.8618125 C15.124625,18.8934375 14.610875,18.6239375 14.297125,18.1468125 C13.857125,17.2846875 13.957125,16.2108125 14.547125,15.4655625 L15.059625,14.5580625 C15.597125,13.5955625 16.347125,12.2893125 16.972125,10.9968125 C17.302125,10.0411875 18.108375,9.3866875 19.034625,9.3193125 C19.743375,9.3495625 20.394625,9.7538125 20.784625,10.4055625 L22.984625,13.7468125 C23.452125,14.3944375 23.584625,15.2620625 23.334625,16.0430625 C22.955875,16.9161875 22.175875,17.4950625 21.297125,17.5555625 C19.984625,17.8030625 18.622125,18.1743125 17.634625,18.4493125 L16.684625,18.6968125 C16.349625,18.7944375 16.005875,18.8494375 15.659625,18.8618125 Z M9.19305024,15.0613234 L2.31216653,4.37171402 C2.18720935,4.17759922 2.09795422,3.96620023 2.04852062,3.74283526 C1.80409888,2.66722656 2.50715465,1.60358384 3.61666454,1.36692333 L9.80959719,0.0373699335 C10.40692,-0.0756421055 11.0234669,0.0706087685 11.499952,0.436235953 C11.984676,0.791226711 12.2812776,1.33767316 12.3101139,1.92533576 L12.9966918,13.8913164 C13.0392596,14.6185821 12.6685076,15.3112794 12.0299901,15.6968499 C11.0646616,16.2805238 9.79449248,15.9959994 9.19305024,15.0613234 Z" id="Combined-Shape"></path>
            </g>
        </g>
    </g>
</svg>

<svg class="svg-yelp" width="24" height="32" xmlns="http://www.w3.org/2000/svg"><path d="M8.268 20.511l-.959.418a63.921 63.921 0 0 0-3.676 1.654c-.47.257-.99.4-1.519.417a1.98 1.98 0 0 1-.182-.01C.76 22.875-.101 21.79.01 20.567v-4.17c0-1.975 1.651-3.018 3.623-2.003 1.277.64 2.664 1.224 3.676 1.655l.96.403c.637.292 1.731.778 1.731 2.03 0 1.25-1.079 1.737-1.732 2.03zm3.777 4.242c.079 1.114.182 2.654.412 4.098a3.005 3.005 0 0 1-.54 2.447 1.92 1.92 0 0 1-1.53.701 2.584 2.584 0 0 1-.835-.15l-3.665-1.28c-.776-.211-1.384-.852-1.593-1.677-.164-.956.17-1.93.873-2.544.964-1.045 1.89-2.227 2.571-3.094l.643-.81c.591-.73 1.183-1.472 2.301-1.087 1.12.385 1.286 1.595 1.286 2.324.077.275.077.632.077 1.072zm9.252-3.52a2.425 2.425 0 0 1 2.037 1.428c.25.73.119 1.541-.349 2.147l-2.2 3.124a2.187 2.187 0 0 1-1.75 1.016 2.385 2.385 0 0 1-2.063-1.569 84.23 84.23 0 0 0-1.913-3.33l-.511-.848a2.235 2.235 0 0 1-.251-2.507 1.563 1.563 0 0 1 1.362-.682c.348.012.69.063 1.027.154l.948.232c.988.244 2.35.604 3.663.836zm-5.637-2.371c-.535.031-1.05-.238-1.363-.715-.44-.862-.34-1.936.25-2.681l.513-.908c.537-.962 1.287-2.269 1.912-3.561.33-.956 1.136-1.61 2.063-1.678.708.03 1.36.435 1.75 1.087l2.2 3.34c.467.648.6 1.516.35 2.297-.38.873-1.16 1.452-2.038 1.513-1.312.247-2.675.618-3.662.893l-.95.248a4.196 4.196 0 0 1-1.025.165zm-6.467-3.8l-6.88-10.69a1.93 1.93 0 0 1-.264-.63c-.245-1.075.458-2.138 1.568-2.375L9.81.037a2.13 2.13 0 0 1 1.69.4c.485.354.781.9.81 1.488l.687 11.966a1.978 1.978 0 0 1-.967 1.806c-.965.584-2.236.299-2.837-.636z" fill="#231F20" fill-rule="evenodd"/></svg>
